images/50556299.svg

<?xml version="1.0" encoding="UTF-8"?>
<svg xmlns="http://www.w3.org/2000/svg" xmlns:xlink="http://www.w3.org/1999/xlink" width="300pt" height="300pt" viewBox="0 0 300 300" version="1.1">
<defs>
<g>
<symbol overflow="visible" id="glyph0-0">
<path style="stroke:none;" d="M 0.453125 1.59375 L 0.453125 -6.34375 L 4.953125 -6.34375 L 4.953125 1.59375 Z M 0.953125 1.09375 L 4.453125 1.09375 L 4.453125 -5.84375 L 0.953125 -5.84375 Z M 0.953125 1.09375 "/>
</symbol>
<symbol overflow="visible" id="glyph0-1">
<path style="stroke:none;" d="M 0.890625 -6.5625 L 4.65625 -6.5625 L 4.65625 -5.8125 L 1.765625 -5.8125 L 1.765625 -3.875 L 4.375 -3.875 L 4.375 -3.140625 L 1.765625 -3.140625 L 1.765625 0 L 0.890625 0 Z M 0.890625 -6.5625 "/>
</symbol>
<symbol overflow="visible" id="glyph0-2">
<path style="stroke:none;" d="M 0.890625 -6.5625 L 2.078125 -6.5625 L 4.984375 -1.078125 L 4.984375 -6.5625 L 5.84375 -6.5625 L 5.84375 0 L 4.65625 0 L 1.75 -5.484375 L 1.75 0 L 0.890625 0 Z M 0.890625 -6.5625 "/>
</symbol>
<symbol overflow="visible" id="glyph0-3">
<path style="stroke:none;" d="M 3.546875 -5.953125 C 2.898438 -5.953125 2.382812 -5.710938 2 -5.234375 C 1.625 -4.753906 1.4375 -4.101562 1.4375 -3.28125 C 1.4375 -2.445312 1.625 -1.789062 2 -1.3125 C 2.382812 -0.832031 2.898438 -0.59375 3.546875 -0.59375 C 4.191406 -0.59375 4.703125 -0.832031 5.078125 -1.3125 C 5.453125 -1.789062 5.640625 -2.445312 5.640625 -3.28125 C 5.640625 -4.101562 5.453125 -4.753906 5.078125 -5.234375 C 4.703125 -5.710938 4.191406 -5.953125 3.546875 -5.953125 Z M 3.546875 -6.6875 C 4.460938 -6.6875 5.195312 -6.375 5.75 -5.75 C 6.300781 -5.132812 6.578125 -4.3125 6.578125 -3.28125 C 6.578125 -2.238281 6.300781 -1.410156 5.75 -0.796875 C 5.195312 -0.179688 4.460938 0.125 3.546875 0.125 C 2.617188 0.125 1.878906 -0.179688 1.328125 -0.796875 C 0.773438 -1.410156 0.5 -2.238281 0.5 -3.28125 C 0.5 -4.3125 0.773438 -5.132812 1.328125 -5.75 C 1.878906 -6.375 2.617188 -6.6875 3.546875 -6.6875 Z M 3.546875 -6.6875 "/>
</symbol>
</g>
</defs>
<g id="surface19233">
<rect x="0" y="0" width="300" height="300" style="fill:rgb(100%,100%,100%);fill-opacity:1;stroke:none;"/>
<path style="fill:none;stroke-width:1.2;stroke-linecap:butt;stroke-linejoin:miter;stroke:rgb(20%,80%,80%);stroke-opacity:1;stroke-miterlimit:10;" d="M 264.75 190.109375 L 260.097656 182.085938 "/>
<path style="fill:none;stroke-width:1.2;stroke-linecap:butt;stroke-linejoin:miter;stroke:rgb(0%,0%,0%);stroke-opacity:1;stroke-miterlimit:10;" d="M 260.097656 182.085938 L 255.445312 174.058594 "/>
<path style=" stroke:none;fill-rule:nonzero;fill:rgb(100%,100%,100%);fill-opacity:1;" d="M 261.75 184.609375 L 267.75 184.609375 L 267.75 195.609375 L 261.75 195.609375 Z M 261.75 184.609375 "/>
<g style="fill:rgb(20%,80%,80%);fill-opacity:1;">
  <use xlink:href="#glyph0-1" x="261.75" y="193.272461"/>
</g>
<path style="fill:none;stroke-width:1.2;stroke-linecap:butt;stroke-linejoin:miter;stroke:rgb(0%,0%,0%);stroke-opacity:1;stroke-miterlimit:10;" d="M 255.445312 174.058594 L 236.894531 174.09375 "/>
<path style="fill:none;stroke-width:1.2;stroke-linecap:butt;stroke-linejoin:miter;stroke:rgb(0%,0%,0%);stroke-opacity:1;stroke-miterlimit:10;" d="M 253.582031 169.699219 L 238.742188 169.722656 "/>
<path style="fill:none;stroke-width:1.2;stroke-linecap:butt;stroke-linejoin:miter;stroke:rgb(0%,0%,0%);stroke-opacity:1;stroke-miterlimit:10;" d="M 264.695312 157.976562 L 255.445312 174.058594 "/>
<path style="fill:none;stroke-width:1.2;stroke-linecap:butt;stroke-linejoin:miter;stroke:rgb(0%,0%,0%);stroke-opacity:1;stroke-miterlimit:10;" d="M 236.894531 174.09375 L 227.589844 158.042969 "/>
<path style="fill:none;stroke-width:1.2;stroke-linecap:butt;stroke-linejoin:miter;stroke:rgb(0%,0%,0%);stroke-opacity:1;stroke-miterlimit:10;" d="M 227.589844 158.042969 L 236.835938 141.957031 "/>
<path style="fill:none;stroke-width:1.2;stroke-linecap:butt;stroke-linejoin:miter;stroke:rgb(0%,0%,0%);stroke-opacity:1;stroke-miterlimit:10;" d="M 232.296875 158.609375 L 239.695312 145.742188 "/>
<path style="fill:none;stroke-width:1.2;stroke-linecap:butt;stroke-linejoin:miter;stroke:rgb(0%,0%,0%);stroke-opacity:1;stroke-miterlimit:10;" d="M 236.835938 141.957031 L 255.390625 141.925781 "/>
<path style="fill:none;stroke-width:1.2;stroke-linecap:butt;stroke-linejoin:miter;stroke:rgb(0%,0%,0%);stroke-opacity:1;stroke-miterlimit:10;" d="M 236.835938 141.957031 L 227.535156 125.90625 "/>
<path style="fill:none;stroke-width:1.2;stroke-linecap:butt;stroke-linejoin:miter;stroke:rgb(0%,0%,0%);stroke-opacity:1;stroke-miterlimit:10;" d="M 255.390625 141.925781 L 264.695312 157.976562 "/>
<path style="fill:none;stroke-width:1.2;stroke-linecap:butt;stroke-linejoin:miter;stroke:rgb(0%,0%,0%);stroke-opacity:1;stroke-miterlimit:10;" d="M 252.542969 145.71875 L 259.988281 158.5625 "/>
<path style="fill:none;stroke-width:1.2;stroke-linecap:butt;stroke-linejoin:miter;stroke:rgb(0%,0%,0%);stroke-opacity:1;stroke-miterlimit:10;" d="M 227.535156 125.90625 L 208.980469 125.941406 "/>
<path style="fill:none;stroke-width:1.2;stroke-linecap:butt;stroke-linejoin:miter;stroke:rgb(0%,0%,0%);stroke-opacity:1;stroke-miterlimit:10;" d="M 208.980469 125.941406 L 199.675781 109.890625 "/>
<path style="fill:none;stroke-width:1.2;stroke-linecap:butt;stroke-linejoin:miter;stroke:rgb(0%,0%,0%);stroke-opacity:1;stroke-miterlimit:10;" d="M 199.734375 142.023438 L 208.980469 125.941406 "/>
<path style="fill:none;stroke-width:1.2;stroke-linecap:butt;stroke-linejoin:miter;stroke:rgb(0%,0%,0%);stroke-opacity:1;stroke-miterlimit:10;" d="M 199.675781 109.890625 L 181.125 109.921875 "/>
<path style="fill:none;stroke-width:1.2;stroke-linecap:butt;stroke-linejoin:miter;stroke:rgb(0%,0%,0%);stroke-opacity:1;stroke-miterlimit:10;" d="M 181.125 109.921875 L 176.5 117.964844 "/>
<path style="fill:none;stroke-width:1.2;stroke-linecap:butt;stroke-linejoin:miter;stroke:rgb(0%,0%,100%);stroke-opacity:1;stroke-miterlimit:10;" d="M 176.5 117.964844 L 171.875 126.003906 "/>
<path style="fill:none;stroke-width:1.2;stroke-linecap:butt;stroke-linejoin:miter;stroke:rgb(0%,0%,100%);stroke-opacity:1;stroke-miterlimit:10;" d="M 171.875 126.003906 L 176.527344 134.03125 "/>
<path style="fill:none;stroke-width:1.2;stroke-linecap:butt;stroke-linejoin:miter;stroke:rgb(0%,0%,0%);stroke-opacity:1;stroke-miterlimit:10;" d="M 176.527344 134.03125 L 181.179688 142.054688 "/>
<path style="fill:none;stroke-width:1.2;stroke-linecap:butt;stroke-linejoin:miter;stroke:rgb(0%,0%,100%);stroke-opacity:1;stroke-miterlimit:10;" d="M 171.875 126.003906 L 162.601562 126.019531 "/>
<path style="fill:none;stroke-width:1.2;stroke-linecap:butt;stroke-linejoin:miter;stroke:rgb(0%,0%,0%);stroke-opacity:1;stroke-miterlimit:10;" d="M 162.601562 126.019531 L 153.324219 126.035156 "/>
<path style=" stroke:none;fill-rule:nonzero;fill:rgb(100%,100%,100%);fill-opacity:1;" d="M 168.875 120.503906 L 175.875 120.503906 L 175.875 131.503906 L 168.875 131.503906 Z M 168.875 120.503906 "/>
<g style="fill:rgb(0%,0%,100%);fill-opacity:1;">
  <use xlink:href="#glyph0-2" x="168.875" y="129.166992"/>
</g>
<path style="fill:none;stroke-width:1.2;stroke-linecap:butt;stroke-linejoin:miter;stroke:rgb(0%,0%,0%);stroke-opacity:1;stroke-miterlimit:10;" d="M 181.179688 142.054688 L 199.734375 142.023438 "/>
<path style="fill:none;stroke-width:1.2;stroke-linecap:butt;stroke-linejoin:miter;stroke:rgb(0%,0%,0%);stroke-opacity:1;stroke-miterlimit:10;" d="M 155.210938 124.941406 L 150.5625 116.917969 "/>
<path style="fill:none;stroke-width:1.2;stroke-linecap:butt;stroke-linejoin:miter;stroke:rgb(100%,0%,0%);stroke-opacity:1;stroke-miterlimit:10;" d="M 150.5625 116.917969 L 145.910156 108.890625 "/>
<path style="fill:none;stroke-width:1.2;stroke-linecap:butt;stroke-linejoin:miter;stroke:rgb(0%,0%,0%);stroke-opacity:1;stroke-miterlimit:10;" d="M 151.4375 127.132812 L 146.785156 119.105469 "/>
<path style="fill:none;stroke-width:1.2;stroke-linecap:butt;stroke-linejoin:miter;stroke:rgb(100%,0%,0%);stroke-opacity:1;stroke-miterlimit:10;" d="M 146.785156 119.105469 L 142.132812 111.082031 "/>
<path style="fill:none;stroke-width:1.2;stroke-linecap:butt;stroke-linejoin:miter;stroke:rgb(0%,0%,0%);stroke-opacity:1;stroke-miterlimit:10;" d="M 153.324219 126.035156 L 144.078125 142.121094 "/>
<path style=" stroke:none;fill-rule:nonzero;fill:rgb(100%,100%,100%);fill-opacity:1;" d="M 136.019531 104.488281 L 144.019531 104.488281 L 144.019531 115.488281 L 136.019531 115.488281 Z M 136.019531 104.488281 "/>
<g style="fill:rgb(100%,0%,0%);fill-opacity:1;">
  <use xlink:href="#glyph0-3" x="136.019531" y="113.151367"/>
</g>
<path style="fill:none;stroke-width:1.2;stroke-linecap:butt;stroke-linejoin:miter;stroke:rgb(0%,0%,0%);stroke-opacity:1;stroke-miterlimit:10;" d="M 144.078125 142.121094 L 125.523438 142.152344 "/>
<path style="fill:none;stroke-width:1.2;stroke-linecap:butt;stroke-linejoin:miter;stroke:rgb(0%,0%,0%);stroke-opacity:1;stroke-miterlimit:10;" d="M 142.230469 146.488281 L 127.386719 146.515625 "/>
<path style="fill:none;stroke-width:1.2;stroke-linecap:butt;stroke-linejoin:miter;stroke:rgb(0%,0%,0%);stroke-opacity:1;stroke-miterlimit:10;" d="M 153.378906 158.171875 L 144.078125 142.121094 "/>
<path style="fill:none;stroke-width:1.2;stroke-linecap:butt;stroke-linejoin:miter;stroke:rgb(0%,0%,0%);stroke-opacity:1;stroke-miterlimit:10;" d="M 125.523438 142.152344 L 116.277344 158.234375 "/>
<path style="fill:none;stroke-width:1.2;stroke-linecap:butt;stroke-linejoin:miter;stroke:rgb(0%,0%,0%);stroke-opacity:1;stroke-miterlimit:10;" d="M 116.277344 158.234375 L 125.578125 174.285156 "/>
<path style="fill:none;stroke-width:1.2;stroke-linecap:butt;stroke-linejoin:miter;stroke:rgb(0%,0%,0%);stroke-opacity:1;stroke-miterlimit:10;" d="M 113.429688 162.03125 L 120.871094 174.871094 "/>
<path style="fill:none;stroke-width:1.2;stroke-linecap:butt;stroke-linejoin:miter;stroke:rgb(0%,0%,0%);stroke-opacity:1;stroke-miterlimit:10;" d="M 98.136719 162.125 L 116.277344 158.234375 "/>
<path style="fill:none;stroke-width:1.2;stroke-linecap:butt;stroke-linejoin:miter;stroke:rgb(0%,0%,0%);stroke-opacity:1;stroke-miterlimit:10;" d="M 125.578125 174.285156 L 119.386719 181.191406 "/>
<path style="fill:none;stroke-width:1.2;stroke-linecap:butt;stroke-linejoin:miter;stroke:rgb(100%,0%,0%);stroke-opacity:1;stroke-miterlimit:10;" d="M 119.386719 181.191406 L 113.191406 188.09375 "/>
<path style="fill:none;stroke-width:1.2;stroke-linecap:butt;stroke-linejoin:miter;stroke:rgb(0%,0%,0%);stroke-opacity:1;stroke-miterlimit:10;" d="M 125.578125 174.285156 L 144.132812 174.253906 "/>
<path style="fill:none;stroke-width:1.2;stroke-linecap:butt;stroke-linejoin:miter;stroke:rgb(100%,0%,0%);stroke-opacity:1;stroke-miterlimit:10;" d="M 113.191406 188.09375 L 104.710938 184.335938 "/>
<path style="fill:none;stroke-width:1.2;stroke-linecap:butt;stroke-linejoin:miter;stroke:rgb(0%,0%,0%);stroke-opacity:1;stroke-miterlimit:10;" d="M 104.710938 184.335938 L 96.230469 180.578125 "/>
<path style=" stroke:none;fill-rule:nonzero;fill:rgb(100%,100%,100%);fill-opacity:1;" d="M 109.191406 182.59375 L 117.191406 182.59375 L 117.191406 193.59375 L 109.191406 193.59375 Z M 109.191406 182.59375 "/>
<g style="fill:rgb(100%,0%,0%);fill-opacity:1;">
  <use xlink:href="#glyph0-3" x="109.191406" y="191.256836"/>
</g>
<path style="fill:none;stroke-width:1.2;stroke-linecap:butt;stroke-linejoin:miter;stroke:rgb(0%,0%,0%);stroke-opacity:1;stroke-miterlimit:10;" d="M 96.230469 180.578125 L 98.136719 162.125 "/>
<path style="fill:none;stroke-width:1.2;stroke-linecap:butt;stroke-linejoin:miter;stroke:rgb(0%,0%,0%);stroke-opacity:1;stroke-miterlimit:10;" d="M 100.761719 179.179688 L 102.289062 164.417969 "/>
<path style="fill:none;stroke-width:1.2;stroke-linecap:butt;stroke-linejoin:miter;stroke:rgb(0%,0%,0%);stroke-opacity:1;stroke-miterlimit:10;" d="M 98.136719 162.125 L 84.328125 149.734375 "/>
<path style="fill:none;stroke-width:1.2;stroke-linecap:butt;stroke-linejoin:miter;stroke:rgb(0%,0%,0%);stroke-opacity:1;stroke-miterlimit:10;" d="M 86.464844 150.183594 L 88.375 141.105469 "/>
<path style="fill:none;stroke-width:1.2;stroke-linecap:butt;stroke-linejoin:miter;stroke:rgb(100%,0%,0%);stroke-opacity:1;stroke-miterlimit:10;" d="M 88.375 141.105469 L 90.289062 132.03125 "/>
<path style="fill:none;stroke-width:1.2;stroke-linecap:butt;stroke-linejoin:miter;stroke:rgb(0%,0%,0%);stroke-opacity:1;stroke-miterlimit:10;" d="M 82.191406 149.285156 L 84.105469 140.207031 "/>
<path style="fill:none;stroke-width:1.2;stroke-linecap:butt;stroke-linejoin:miter;stroke:rgb(100%,0%,0%);stroke-opacity:1;stroke-miterlimit:10;" d="M 84.105469 140.207031 L 86.015625 131.128906 "/>
<path style="fill:none;stroke-width:1.2;stroke-linecap:butt;stroke-linejoin:miter;stroke:rgb(0%,0%,0%);stroke-opacity:1;stroke-miterlimit:10;" d="M 84.328125 149.734375 L 66.691406 155.496094 "/>
<path style=" stroke:none;fill-rule:nonzero;fill:rgb(100%,100%,100%);fill-opacity:1;" d="M 84.152344 126.082031 L 92.152344 126.082031 L 92.152344 137.082031 L 84.152344 137.082031 Z M 84.152344 126.082031 "/>
<g style="fill:rgb(100%,0%,0%);fill-opacity:1;">
  <use xlink:href="#glyph0-3" x="84.152344" y="134.745117"/>
</g>
<path style="fill:none;stroke-width:1.2;stroke-linecap:butt;stroke-linejoin:miter;stroke:rgb(0%,0%,0%);stroke-opacity:1;stroke-miterlimit:10;" d="M 64.558594 155.046875 L 62.644531 164.125 "/>
<path style="fill:none;stroke-width:1.2;stroke-linecap:butt;stroke-linejoin:miter;stroke:rgb(100%,0%,0%);stroke-opacity:1;stroke-miterlimit:10;" d="M 62.644531 164.125 L 60.730469 173.203125 "/>
<path style="fill:none;stroke-width:1.2;stroke-linecap:butt;stroke-linejoin:miter;stroke:rgb(0%,0%,0%);stroke-opacity:1;stroke-miterlimit:10;" d="M 68.828125 155.949219 L 66.914062 165.023438 "/>
<path style="fill:none;stroke-width:1.2;stroke-linecap:butt;stroke-linejoin:miter;stroke:rgb(100%,0%,0%);stroke-opacity:1;stroke-miterlimit:10;" d="M 66.914062 165.023438 L 65.003906 174.101562 "/>
<path style="fill:none;stroke-width:1.2;stroke-linecap:butt;stroke-linejoin:miter;stroke:rgb(0%,0%,0%);stroke-opacity:1;stroke-miterlimit:10;" d="M 66.691406 155.496094 L 59.789062 149.304688 "/>
<path style="fill:none;stroke-width:1.2;stroke-linecap:butt;stroke-linejoin:miter;stroke:rgb(0%,0%,100%);stroke-opacity:1;stroke-miterlimit:10;" d="M 59.789062 149.304688 L 52.882812 143.109375 "/>
<path style=" stroke:none;fill-rule:nonzero;fill:rgb(100%,100%,100%);fill-opacity:1;" d="M 58.867188 168.152344 L 66.867188 168.152344 L 66.867188 179.152344 L 58.867188 179.152344 Z M 58.867188 168.152344 "/>
<g style="fill:rgb(100%,0%,0%);fill-opacity:1;">
  <use xlink:href="#glyph0-3" x="58.867188" y="176.81543"/>
</g>
<path style="fill:none;stroke-width:1.2;stroke-linecap:butt;stroke-linejoin:miter;stroke:rgb(0%,0%,100%);stroke-opacity:1;stroke-miterlimit:10;" d="M 52.882812 143.109375 L 44.066406 145.988281 "/>
<path style="fill:none;stroke-width:1.2;stroke-linecap:butt;stroke-linejoin:miter;stroke:rgb(0%,0%,0%);stroke-opacity:1;stroke-miterlimit:10;" d="M 44.066406 145.988281 L 35.25 148.871094 "/>
<path style="fill:none;stroke-width:1.2;stroke-linecap:butt;stroke-linejoin:miter;stroke:rgb(0%,0%,100%);stroke-opacity:1;stroke-miterlimit:10;" d="M 52.882812 143.109375 L 54.796875 134.03125 "/>
<path style="fill:none;stroke-width:1.2;stroke-linecap:butt;stroke-linejoin:miter;stroke:rgb(0%,0%,0%);stroke-opacity:1;stroke-miterlimit:10;" d="M 54.796875 134.03125 L 56.710938 124.953125 "/>
<path style=" stroke:none;fill-rule:nonzero;fill:rgb(100%,100%,100%);fill-opacity:1;" d="M 49.882812 137.609375 L 56.882812 137.609375 L 56.882812 148.609375 L 49.882812 148.609375 Z M 49.882812 137.609375 "/>
<g style="fill:rgb(0%,0%,100%);fill-opacity:1;">
  <use xlink:href="#glyph0-2" x="49.882812" y="146.272461"/>
</g>
<path style="fill:none;stroke-width:1.2;stroke-linecap:butt;stroke-linejoin:miter;stroke:rgb(0%,0%,0%);stroke-opacity:1;stroke-miterlimit:10;" d="M 144.132812 174.253906 L 153.378906 158.171875 "/>
<path style="fill:none;stroke-width:1.2;stroke-linecap:butt;stroke-linejoin:miter;stroke:rgb(0%,0%,0%);stroke-opacity:1;stroke-miterlimit:10;" d="M 141.273438 170.46875 L 148.671875 157.601562 "/>
<path style="fill:none;stroke-width:1.2;stroke-linecap:butt;stroke-linejoin:miter;stroke:rgb(0%,0%,0%);stroke-opacity:1;stroke-miterlimit:10;" d="M 153.378906 158.171875 L 162.65625 158.15625 "/>
<path style="fill:none;stroke-width:1.2;stroke-linecap:butt;stroke-linejoin:miter;stroke:rgb(100%,0%,0%);stroke-opacity:1;stroke-miterlimit:10;" d="M 162.65625 158.15625 L 171.933594 158.136719 "/>
<path style="fill:none;stroke-width:1.2;stroke-linecap:butt;stroke-linejoin:miter;stroke:rgb(100%,0%,0%);stroke-opacity:1;stroke-miterlimit:10;" d="M 171.933594 158.136719 L 176.585938 166.164062 "/>
<path style="fill:none;stroke-width:1.2;stroke-linecap:butt;stroke-linejoin:miter;stroke:rgb(0%,0%,0%);stroke-opacity:1;stroke-miterlimit:10;" d="M 176.585938 166.164062 L 181.238281 174.1875 "/>
<path style=" stroke:none;fill-rule:nonzero;fill:rgb(100%,100%,100%);fill-opacity:1;" d="M 167.933594 152.636719 L 175.933594 152.636719 L 175.933594 163.636719 L 167.933594 163.636719 Z M 167.933594 152.636719 "/>
<g style="fill:rgb(100%,0%,0%);fill-opacity:1;">
  <use xlink:href="#glyph0-3" x="167.933594" y="161.299805"/>
</g>
</g>
</svg>

<svg xmlns="http://www.w3.org/2000/svg" xmlns:xlink="http://www.w3.org/1999/xlink" width="300pt" height="300pt" viewBox="0 0 300 300"><defs><symbol overflow="visible"><path d="M.453 1.594v-7.938h4.5v7.938zm.5-.5h3.5v-6.938h-3.5zm0 0"/></symbol><symbol overflow="visible" id="a"><path d="M.89-6.563h3.766v.75h-2.89v1.938h2.61v.734h-2.61V0H.89zm0 0"/></symbol><symbol overflow="visible" id="b"><path d="M.89-6.563H2.08l2.906 5.485v-5.484h.86V0H4.656L1.75-5.484V0H.89zm0 0"/></symbol><symbol overflow="visible" id="c"><path d="M3.547-5.953c-.65 0-1.164.242-1.547.72-.375.48-.563 1.13-.563 1.952 0 .835.188 1.49.563 1.967.383.48.898.72 1.547.72.644 0 1.156-.24 1.53-.72.376-.476.564-1.132.564-1.968 0-.822-.187-1.474-.562-1.954-.375-.477-.887-.72-1.53-.72zm0-.734c.914 0 1.648.312 2.203.937.55.617.828 1.438.828 2.47 0 1.042-.277 1.87-.828 2.483-.555.617-1.29.922-2.203.922-.93 0-1.668-.305-2.22-.922C.774-1.41.5-2.237.5-3.28c0-1.033.273-1.853.828-2.47.55-.625 1.29-.938 2.22-.938zm0 0"/></symbol></defs><g><path fill="#fff" d="M0 0h300v300H0z"/><path d="M264.75 190.11l-4.652-8.024" stroke-width="1.2" stroke="#3cc" stroke-miterlimit="10" fill="none"/><path d="M260.098 182.086l-4.653-8.027" stroke-width="1.2" stroke="#000" stroke-miterlimit="10" fill="none"/><path d="M261.75 184.61h6v11h-6zm0 0" fill="#fff"/><use xlink:href="#a" x="261.75" y="193.272" fill="#3cc"/><path d="M255.445 174.06l-18.55.034M253.582 169.7l-14.84.023M264.695 157.977l-9.25 16.082M236.895 174.094l-9.305-16.05M227.59 158.043l9.246-16.086M232.297 158.61l7.398-12.868M236.836 141.957l18.555-.03M236.836 141.957l-9.3-16.05M255.39 141.926l9.305 16.05M252.543 145.72l7.445 12.843M227.535 125.906l-18.555.035M208.98 125.94l-9.304-16.05M199.734 142.023l9.246-16.082M199.676 109.89l-18.55.032M181.125 109.922l-4.625 8.043" stroke-width="1.2" stroke="#000" stroke-miterlimit="10" fill="none"/><path d="M176.5 117.965l-4.625 8.04M171.875 126.004l4.652 8.027" stroke-width="1.2" stroke="#00f" stroke-miterlimit="10" fill="none"/><path d="M176.527 134.03l4.653 8.025" stroke-width="1.2" stroke="#000" stroke-miterlimit="10" fill="none"/><path d="M171.875 126.004l-9.273.016" stroke-width="1.2" stroke="#00f" stroke-miterlimit="10" fill="none"/><path d="M162.602 126.02l-9.278.015" stroke-width="1.2" stroke="#000" stroke-miterlimit="10" fill="none"/><path d="M168.875 120.504h7v11h-7zm0 0" fill="#fff"/><use xlink:href="#b" x="168.875" y="129.167" fill="#00f"/><path d="M181.18 142.055l18.554-.032M155.21 124.94l-4.648-8.022" stroke-width="1.2" stroke="#000" stroke-miterlimit="10" fill="none"/><path d="M150.563 116.918l-4.653-8.027" stroke-width="1.2" stroke="#f00" stroke-miterlimit="10" fill="none"/><path d="M151.438 127.133l-4.653-8.028" stroke-width="1.2" stroke="#000" stroke-miterlimit="10" fill="none"/><path d="M146.785 119.105l-4.652-8.023" stroke-width="1.2" stroke="#f00" stroke-miterlimit="10" fill="none"/><path d="M153.324 126.035l-9.246 16.086" stroke-width="1.2" stroke="#000" stroke-miterlimit="10" fill="none"/><path d="M136.02 104.488h8v11h-8zm0 0" fill="#fff"/><use xlink:href="#c" x="136.02" y="113.151" fill="#f00"/><path d="M144.078 142.12l-18.555.032M142.23 146.488l-14.843.028M153.38 158.172l-9.302-16.05M125.523 142.152l-9.246 16.082M116.277 158.234l9.3 16.05M113.43 162.03l7.44 12.84M98.137 162.125l18.14-3.89M125.578 174.285l-6.19 6.906" stroke-width="1.2" stroke="#000" stroke-miterlimit="10" fill="none"/><path d="M119.387 181.19l-6.196 6.904" stroke-width="1.2" stroke="#f00" stroke-miterlimit="10" fill="none"/><path d="M125.578 174.285l18.555-.03" stroke-width="1.2" stroke="#000" stroke-miterlimit="10" fill="none"/><path d="M113.19 188.094l-8.48-3.758" stroke-width="1.2" stroke="#f00" stroke-miterlimit="10" fill="none"/><path d="M104.71 184.336l-8.48-3.758" stroke-width="1.2" stroke="#000" stroke-miterlimit="10" fill="none"/><path d="M109.19 182.594h8v11h-8zm0 0" fill="#fff"/><use xlink:href="#c" x="109.191" y="191.257" fill="#f00"/><path d="M96.23 180.578l1.907-18.453M100.762 179.18l1.527-14.762M98.137 162.125l-13.81-12.39M86.465 150.184l1.91-9.08" stroke-width="1.2" stroke="#000" stroke-miterlimit="10" fill="none"/><path d="M88.375 141.105l1.914-9.074" stroke-width="1.2" stroke="#f00" stroke-miterlimit="10" fill="none"/><path d="M82.19 149.285l1.915-9.078" stroke-width="1.2" stroke="#000" stroke-miterlimit="10" fill="none"/><path d="M84.105 140.207l1.91-9.078" stroke-width="1.2" stroke="#f00" stroke-miterlimit="10" fill="none"/><path d="M84.328 149.734l-17.637 5.762" stroke-width="1.2" stroke="#000" stroke-miterlimit="10" fill="none"/><path d="M84.152 126.082h8v11h-8zm0 0" fill="#fff"/><use xlink:href="#c" x="84.152" y="134.745" fill="#f00"/><path d="M64.56 155.047l-1.915 9.078" stroke-width="1.2" stroke="#000" stroke-miterlimit="10" fill="none"/><path d="M62.645 164.125l-1.915 9.078" stroke-width="1.2" stroke="#f00" stroke-miterlimit="10" fill="none"/><path d="M68.828 155.95l-1.914 9.073" stroke-width="1.2" stroke="#000" stroke-miterlimit="10" fill="none"/><path d="M66.914 165.023l-1.91 9.08" stroke-width="1.2" stroke="#f00" stroke-miterlimit="10" fill="none"/><path d="M66.69 155.496l-6.9-6.19" stroke-width="1.2" stroke="#000" stroke-miterlimit="10" fill="none"/><path d="M59.79 149.305l-6.907-6.196" stroke-width="1.2" stroke="#00f" stroke-miterlimit="10" fill="none"/><path d="M58.867 168.152h8v11h-8zm0 0" fill="#fff"/><use xlink:href="#c" x="58.867" y="176.815" fill="#f00"/><path d="M52.883 143.11l-8.817 2.878" stroke-width="1.2" stroke="#00f" stroke-miterlimit="10" fill="none"/><path d="M44.066 145.988l-8.816 2.883" stroke-width="1.2" stroke="#000" stroke-miterlimit="10" fill="none"/><path d="M52.883 143.11l1.914-9.08" stroke-width="1.2" stroke="#00f" stroke-miterlimit="10" fill="none"/><path d="M54.797 134.03l1.914-9.077" stroke-width="1.2" stroke="#000" stroke-miterlimit="10" fill="none"/><path d="M49.883 137.61h7v11h-7zm0 0" fill="#fff"/><use xlink:href="#b" x="49.883" y="146.272" fill="#00f"/><path d="M144.133 174.254l9.246-16.082M141.273 170.47l7.4-12.868M153.38 158.172l9.276-.016" stroke-width="1.2" stroke="#000" stroke-miterlimit="10" fill="none"/><path d="M162.656 158.156l9.278-.02M171.934 158.137l4.652 8.027" stroke-width="1.2" stroke="#f00" stroke-miterlimit="10" fill="none"/><path d="M176.586 166.164l4.652 8.024" stroke-width="1.2" stroke="#000" stroke-miterlimit="10" fill="none"/><path d="M167.934 152.637h8v11h-8zm0 0" fill="#fff"/><use xlink:href="#c" x="167.934" y="161.3" fill="#f00"/></g></svg>
